X:1
T:Not Far from the Kingdom
T:Not Far from the Kingdom
T:Ira David Sankey, 1886
T:Frederic Smith, ca. 1881, alt.
T:Public Domain Courtesy of the Cyber Hymnal™
C:Ira David Sankey, 1886
Z:Public Domain
Z:Courtesy of the Cyber Hymnal™
%%score ( 1 2 ) ( 3 4 )
L:1/8
Q:1/4=90
M:6/8
K:Eb
V:1 treble 
V:2 treble 
V:3 bass 
V:4 bass 
V:1
 B, | [EG]->[EG][EG] [EG][EB]>[EA] | [EG]3 [B,E]2 B, | [DF]->[DF][DF] [DF][DB]>[FA] | %4
w: 1.~Not|far, * not far from the|king- dom, Yet|in * the sha- dow of|
w: 2.~Not|far, * not far from the|king- dom, Where|voi- * ces whis- per and|
w: 3.~A-|way * in dark- ness and|dan- ger, All|lost * in night and the|
w: 4.~Not|far, * not far from the|king- dom, So|near * the end of the|
 [EG]3- [EG]2 B, | [EG]>[EG][EG] [EG][EB]>[EA] | [EG]3 [B,E]2 B, | [DF]>[DF][DF] [DF]<[DG][B,F] | %8
w: sin; * How|ma- ny are com- ing and|go- ing! How|few there are en- ter- ing|
w: wait; * Too|ti- mid to en- ter in|bold- ly, So|lin- ger still out- side the|
w: cold; * There|Je- sus is wait- ing to|lead you So|ten- der- ly in- to His|
w: race; * But|oh, you may still be for-|ev- er Shut|out from yon hea- ven- ly|
 [B,E]3- [B,E]2 ||"^Refrain" E | [Ec]>[Ec][Ec] [Ec][Ed][Ee] | ([Ge]3 [EB]2) [EG] | %12
w: in! *||||
w: gate. *||||
w: fold. *||||
w: place! *||||
 [GB]>[FA][EG] [FA]<[GB][FA] | [EG]3- [EG]2 E | [Ec]>[Ec][Ec] [Ec][Ed][Ee] | [Ge]3 [EB]2 [EG] | %16
w: ||||
w: ||||
w: ||||
w: ||||
 [GB]>[EG]E [DG]<[DG][DF] | E3- E2 |] %18
w: ||
w: ||
w: ||
w: ||
V:2
 B, | x6 | x5 B, | x6 | x5 B, | x6 | x5 B, | x6 | x5 || E | x6 | x6 | x6 | x5 E | x6 | x6 | %16
 x2 E x3 | E3- E2 |] %18
V:3
 [E,G,] | [E,B,]->[E,B,][E,B,] [E,B,][E,D]>[E,C] | [E,B,]3 [E,G,]2 [E,G,] | %3
w: ~|~ * ~ ~ ~ ~|~ ~ ~|
 [B,,B,]->[B,,B,][B,,B,] [B,,B,][B,,F,]>[B,,B,] | [E,B,]3- [E,B,]2 [E,G,] | %5
w: ~ * ~ ~ ~ ~|~ * ~|
 [E,B,]>[E,B,][E,B,] [E,B,][E,D]>[E,C] | [E,B,]3 [E,G,]2 [E,G,] | %7
w: ~ ~ ~ ~ ~ ~|~ ~ ~|
 [B,,A,]>[B,,A,][B,,A,] [B,,A,]<[B,,A,][B,,A,] | [E,G,]3- [E,G,]2 || [E,G,] | %10
w: ~ ~ ~ ~ ~ ~|~ *|How|
 [A,,A,]>[A,,A,][A,,A,] A,[A,B,][A,C] | ([E,B,]3 [E,G,]2) [E,B,] | %12
w: few there are en- ter- ing|in! * How|
 [B,,B,]>[B,,B,][B,,B,] [B,,B,]<[B,,B,][B,,B,] | [E,B,]3- [E,B,]2 [E,G,] | %14
w: few there are en- ter- ing|in! * How|
 [A,,A,]>[A,,A,][A,,A,] A,[A,B,][A,C] | [E,B,]3 [E,G,]2 [E,B,] | %16
w: ma- ny are com- ing and|go- ing! How|
 [E,E]>[E,B,][E,G,] [B,,B,]<[B,,B,][B,,A,] | [E,G,]3- [E,G,]2 |] %18
w: few there are en- ter- ing|in! *|
V:4
 x | x6 | x6 | x6 | x6 | x6 | x6 | x6 | x5 || x | x3 A, x2 | x6 | x6 | x6 | x3 A, x2 | x6 | x6 | %17
 x5 |] %18

